X: 11004
M: C
L: 1/8
K: G
cz (3(ABc) Bz (3(GAB) | (3(ABA) (3(GFE) D>E (3FGA |\
f2 (3(agf) e2 (3(gfe) | d2 (3([d'd][d'd][d'd]) [d'2d2] :|
|: !p!d^d |\
e2"_cres. ..."e>e e>fg>a | !f!b2b>b "dim."bagf |\
!p!f>ee>e e>"_cres."fg>a | !f!b2b>b b2=d>d |\
d>^cc>c "_>"a>=cc>c | c>BB>B "_>"e>AB>c |\
"_>"d>GA>B "_>"c>DE>F | G2(3([gG][gG][gG]) [g2G2] :|



